src/images/forum.svg

<svg width="20" height="20" viewBox="0 0 20 20" fill="none" xmlns="http://www.w3.org/2000/svg">
<g clip-path="url(#clip0)">
<path d="M10.0021 0C4.47928 0 0 4.47928 0 10.0021C0 12.609 0.99635 14.9839 2.6326 16.7619C2.25038 17.5435 1.62336 18.4625 0.657075 18.9349C0.322096 19.1024 0.399399 19.6006 0.768735 19.6607C1.85957 19.8325 3.40992 19.6478 4.87009 18.5871C6.36891 19.4846 8.1254 20 9.99785 20C15.5207 20 20 15.5207 20 9.99785C20.0043 4.47928 15.525 0 10.0021 0ZM10.0021 5.40691C7.46833 5.40691 5.40691 7.46833 5.40691 10.0021C5.40691 10.6635 4.87009 11.2003 4.20872 11.2003C3.54735 11.2003 3.01482 10.6635 3.01482 10.0021C3.01482 6.14988 6.14988 3.01482 10.0021 3.01482C10.6635 3.01482 11.2003 3.55164 11.2003 4.21301C11.2003 4.87009 10.6635 5.40691 10.0021 5.40691Z" fill="white"/>
</g>
<defs>
<clipPath id="clip0">
<rect width="20" height="20" fill="white"/>
</clipPath>
</defs>
</svg>

<svg width="20" height="20" fill="none" xmlns="http://www.w3.org/2000/svg"><g clip-path="url(#clip0)"><path d="M10.002 0C4.48 0 0 4.48 0 10.002c0 2.607.996 4.982 2.633 6.76-.383.782-1.01 1.7-1.976 2.173-.335.167-.258.666.112.726 1.09.171 2.64-.013 4.101-1.074A9.955 9.955 0 009.998 20C15.52 20 20 15.52 20 9.998 20.004 4.479 15.525 0 10.002 0zm0 5.407a4.6 4.6 0 00-4.595 4.595 1.195 1.195 0 11-2.392 0c0-3.852 3.135-6.987 6.987-6.987.662 0 1.198.537 1.198 1.198 0 .657-.536 1.194-1.198 1.194z" fill="#fff"/></g><defs><clipPath id="clip0"><path fill="#fff" d="M0 0h20v20H0z"/></clipPath></defs></svg>
